!!!COM:	Martini, Johannes
!!!CDT:	~1440///-~1497//
!!!OTL:	Deus in adjutorium
!!!AGN:	Motet
!!!SCT:	Mar2021
!!!SCA:	Mar2021
!!!voices:	3
**kern	**kern	**kern
*staff3	*staff2	*staff1
*Ivox	*Ivox	*Ivox
*I"Bassus	*I"Tenor	*I"Superius
*I'B	*I'T	*I'S
*>[A,B,C,D,E,F,G]	*>[A,B,C,D,E,F,G]	*>[A,B,C,D,E,F,G]
*>A	*>A	*>A
*clefGv2	*clefGv2	*clefG2
*k[]	*k[]	*k[]
*M2/1	*M2/1	*M2/1
*met(C)	*met(C)	*met(C)
=1-	=1-	=1-
!!LO:TX:Z=8:t=Choir 1
!!section: Domine, ad adjuvandum
!!!OMD: Domine, ad adjuvandum
2c\	2e\	2cc\
2c\	2e\	2cc\
1F	1f	1cc
=2	=2	=2
2G/	2d\	2b\
2A/	2c\	2a/
2G/	2d\	2b\
[2C/	[2e\	[2cc\
=3	=3	=3
4C/]	2e\]	2cc\]
4D/	.	.
4E/	4d\	4b\
4F/	4c\	4a/
2G/	2B\	2g/
[2F/	2c\	[2a/
=4	=4	=4
2F/]	2d\	2a/]
2G/	2B\	1g
1D	1A	.
.	.	2f#i/
=5	=5	=5
0dl	0Gl	0gl
=6||	=6||	=6||
*>B	*>B	*>B
!!section: Confundantur
!!!OMD: Confundantur
!!LO:TX:Z=8:t=Choir 2
1c	1e	1cc
2A/	2e\	2cc\
2A/	2e\	2cc\
=7	=7	=7
1F	1f	1cc
1F	1f	1cc
=8	=8	=8
2A/	2c\	2cc\
2A/	2c\	2cc\
2A/	2e\	2cc\
2A/	2e\	2cc\
=9	=9	=9
1A	1e	1cc
1r	1r	1r
=10	=10	=10
2A/	2c\	2cc\
2A/	2c\	2cc\
1A	2e\	1cc
.	2c\	.
=11	=11	=11
1G	1d	2b\
.	.	2a/
2G/	2B\	2g/
[2F/	[2c\	[2a/
=12	=12	=12
2F/]	2c\]	4a/]
.	.	4g/
2G/	2B\	4f#i/
.	.	4e/
1D	1A	1f#i
=13	=13	=13
0dl	0Gl	0gl
=14||	=14||	=14||
*>C	*>C	*>C
!!LO:TX:Z=8:t=Choir 1
!!section: Avertantur retrorsum
!!!OMD: Avertantur retrorsum
1c	1e	1cc
2F/	2f\	2cc\
2F/	2f\	2cc\
=15	=15	=15
1F	1f	1cc
2G/	2d\	2b\
2G/	2d\	2b\
=16	=16	=16
1A	1c	1a
1G	1d	1b
=17	=17	=17
2c\	2e\	2cc\
1B-	1f	1dd
2c\	2e\	[2cc\
=18	=18	=18
1G	1d	2cc\]
.	.	2b\
1C	1c	1cc
=19	=19	=19
1r	1r	1r
1C	1e	1cc
=20	=20	=20
2G/	2d\	2b\
2G/	2B\	2g/
2F/	2c\	2a/
2D/	[2d\	[2b\
=21	=21	=21
1G	2d\]	2b\]
.	2B\	1g
1D	1A	.
.	.	2f#i/
=22	=22	=22
0dl	0Gl	0gl
=23||	=23||	=23||
*>D	*>D	*>D
!!section: Avertantur statim
!!!OMD: Avertantur statim
!!LO:TX:Z=8:t=Choir 2
1c	1c	1cc
2A/	2e\	2cc\
2A/	2e\	2cc\
=24	=24	=24
1A	1e	1cc
1A	1c	1cc
=25	=25	=25
1G	1d	1b
2E/	2e\	2cc\
2D/	2f\	[2dd\
=26	=26	=26
2G/	2g\	2dd\]
2A/	2c\	1cc
1G	1d	.
.	.	2b\
=27	=27	=27
1C	1c	1cc
1r	1r	1r
=28	=28	=28
2c\	2e\	2cc\
2c\	2e\	2cc\
2F/	2f\	2cc\
2F/	2f\	2cc\
=29	=29	=29
2A/	1e	1cc
2c\	.	.
2G/	2d\	2b\
2C/	[2c\	[2a/
=30	=30	=30
2F/	2c\]	2a/]
2G/	2B\	1g
1D	1A	.
.	.	2f#i/
=31	=31	=31
0dl	0Gl	0gl
=32||	=32||	=32||
*>E	*>E	*>E
!!section: Exultent et letentur
!!!OMD: Exultent et letentur
!!LO:TX:Z=8:t=Choir 1
2c\	2e\	2cc\
2c\	2e\	2cc\
1A	1e	1cc
=33	=33	=33
1F	1f	1cc
2A/	2e\	2cc\
2A/	2e\	2cc\
=34	=34	=34
2A/	1e	1cc
2c\	.	.
2G/	2d\	2b\
2A/	2c\	[2a/
=35	=35	=35
1E	1B	2a/]
.	.	2g/
1F	1A	1a
=36	=36	=36
1G	1d	1b
2E/	2e\	2cc\
2D/	2f\	[2dd\
=37	=37	=37
2E/	2g\	2dd\]
2C/	2e\	1cc
1G	1d	.
.	.	2b\
=38	=38	=38
1C	1c	1cc
1r	1r	1r
=39	=39	=39
1c	1e	1cc
2G/	2d\	2b\
2A/	2c\	2a/
=40	=40	=40
1G	1d	1b
1A	1c	1cc
=41	=41	=41
2c\	2e\	2cc\
2c\	2e\	2cc\
2c\	2e\	2cc\
2c\	2e\	2cc\
=42	=42	=42
1F	1f	1cc
2G/	2d\	2b\
2G/	2d\	2b\
=43	=43	=43
1A	1c	1cc
1A	1e	2r
.	.	2cc\
=44	=44	=44
2A/	2e\	2cc\
2A/	2e\	2cc\
1A	1e	1cc
=45	=45	=45
2D/	2d\	2b\
2F/	2c\	2a/
2G/	2B\	2g/
[2F/	[2c\	[2a/
=46	=46	=46
2F/]	2c\]	2a/]
2G/	2B\	1g
1D	1A	.
.	.	2f#i/
=47	=47	=47
0dl	0Gl	0gl
=48||	=48||	=48||
*>F	*>F	*>F
!!LO:TX:Z=8:t=Choir 2
!!section: Ego vero egenus
!!!OMD: Ego vero egenus
2c\	1e	2cc\
2c\	.	2cc\
1c	2e\	1cc
.	2e\	.
=49	=49	=49
1A	1e	1cc
2A/	2e\	2cc\
2A/	2e\	2cc\
=50	=50	=50
1A	1f	1cc
1G	1g	1b
=51	=51	=51
2A/	2c\	2cc\
2G/	2B\	1dd
2E/	2c\	.
2C/	2e\	[2cc\
=52	=52	=52
1G	1d	2cc\]
.	.	2b\
1C	1c	1cc
=53	=53	=53
1r	1r	1r
1C	1e	1cc
=54	=54	=54
2G/	1d	2b\
2D/	.	2a/
2G/	2B\	2g/
[2F/	2c\	[2a/
=55	=55	=55
2F/]	2d\	2a/]
2G/	2B\	1g
1D	1A	.
.	.	2f#i/
=56	=56	=56
0dl	0Gl	0gl
=57||	=57||	=57||
*>G	*>G	*>G
!!LO:TX:Z=8:t=Choir 1
!!section: Adjutor meus
!!!OMD: Adjutor meus
1c	1e	1cc
2A/	2e\	2cc\
2A/	2e\	2cc\
=58	=58	=58
1F	1f	1cc
1F	1f	1cc
=59	=59	=59
2A/	2e\	2cc\
2A/	2e\	2cc\
2A/	2e\	2cc\
2A/	2e\	2cc\
=60	=60	=60
1A	1c	1cc
1G	1d	1b
=61	=61	=61
2c\	2e\	2cc\
2.B-\	2.f\	2.dd\
4A/	4c\	4cc\
4G/	2e\	4b\
4F/	.	4a/
=62	=62	=62
1G	1d	1b
1A	1c	1cc
=63	=63	=63
1r	1r	1r
2A/	2e\	2cc\
2A/	2e\	2cc\
=64	=64	=64
1F	1f	1cc
2G/	1d	2b\
2D/	.	2a/
=65	=65	=65
2G/	2B\	2g/
1F	1c	1a
2G/	2B\	[2g/
=66	=66	=66
1D	1A	2g/]
.	.	2f#i/
1dl	1Gl	1gl
==	==	==
*-	*-	*-
!!!RDF**kern: l=long note in original notation
!!!RDF**kern: i=editorial accidental
!!!ENC:	Chris Gage 08-01-2014
!!!END:	2014/10/06/
!!!EED:	Jesse Rodin
!!!EEV:	2014/10/17/
!!!ONB:	Translated from MusicXML and edited on 2014/10/17/ by Craig Sapp
!!muse2ps: C^@{COM}^i2I150v85,85,150Q16
